app/dist/common/images/nexchip-semiconductor.svg

<svg height="18" viewBox="0 0 18 18" width="18" xmlns="http://www.w3.org/2000/svg"><path d="m0 0h18v18h-18z" fill="#f0f3fa"/><path d="m3 9h2.2l3.8-4c-2.22 0-6.02 1.23-6 4zm12 0h-2.2l-3.8 4c2.15-.06 6-1.23 6-4z" fill="#4c7dc0"/><path d="m15 9h-2.2l-3.8-4c2.15.06 6.02 1.38 6 4zm-12 0h2.2l3.8 4c-2.15-.06-6-1.38-6-4z" fill="#e4223c"/><path d="m9 9v-4l3.8 4zm0 0v4l-3.8-4z" fill="#c1c1c1"/></svg>

<!-- by TradingView --><svg width="18" height="18" viewBox="0 0 18 18" xmlns="http://www.w3.org/2000/svg"><path fill="#F0F3FA" d="M0 0h18v18H0z"/><path d="M3 9h2.2L9 5C6.78 5 2.98 6.23 3 9ZM15 9h-2.2L9 13c2.15-.06 6-1.23 6-4Z" fill="#4C7DC0"/><path d="M15 9h-2.2L9 5c2.15.06 6.02 1.38 6 4ZM3 9h2.2L9 13c-2.15-.06-6-1.38-6-4Z" fill="#E4223C"/><path d="M9 9V5l3.8 4H9ZM9 9v4L5.2 9H9Z" fill="#C1C1C1"/></svg>
